X: 9073
T: Da Hamnavoe Polka
R: strathspey
M: 4/4
K: Gmajor
|:D2|G2 F2 E2 D2|ABcA dB G2|e2 d2 c2 B2|ABAG FA d2|
G2 F2 E2 D2|ABcA dB G2|e<g- g2 d<g- g2|G2 F2 G2:|
|:d2|g2 f2 efge|d2 B2 ABcA|G2 G2 GABA|G2 A2 F2 d2|
g2 f2 efge|d2 B2 ABcA|G2 G2 GABA|G2 F2 G2:|

